X:1
T:Title
%%score { 1 | 2 }
L:1/8
M:4/4
K:D
V:1 treble nm="Grand Piano"
V:2 bass 
V:1
 z4 z2[Q:1/4=92] [DF]>[EG] | [FA]>[FA] [FA]>[FA] [FA]3 [FA] | [GB]>[Gd] [Ac]>[GB] [FA]4 | %3
 F>F (3FED [CE]4 | [CE]>[CE] (3[CE]DC D2 F>[EG] | [FA]>[FA] [FA]>[FA] [FA]3 [FA] | %6
 [GB]>[Gd] [Ac]>[GB] [FA]4 | F>F (3FED [CE]4 | [CA]>[CA] (3[CA][CG][CE] D4 | B>B B>B B4 | %10
 [Fd]>[FA] [FA]>F [FA]4 | A>G (3GGG c4 | [GB]>[FA] (3[FA][FA][FA] [Fd]4 | B>B B>B B4 | %14
 [Fd]>[FA] [FA]>F [FA]4 | F>F (3FED [CE]4 | [CA]>[CA] (3[CA][CG][CE] D4 |] %17
V:2
 z4 z2 [D,A,]>[D,A,] | [D,D]>[D,D] [D,D]>[D,D] [D,D]3 [D,D] | [G,D]>[G,B,] [G,D]>[G,D] [D,D]4 | %3
 [D,A,D]>[D,A,D] (3[D,A,D][D,G,D][D,F,] [A,,G,]4 | %4
 [A,,G,]>[A,,G,] (3[A,,G,][A,,F,][A,,G,A,] [D,F,A,]2 [D,A,D]>[D,A,] | %5
 [D,D]>[D,D] [D,D]>[D,D] [D,D]3 [D,D] | [G,D]>[G,B,] [G,D]>[G,D] [D,D]4 | %7
 [D,A,D]>[D,A,D] (3[D,A,D][D,G,D][D,F,] [A,,G,]4 | %8
 [A,,E,]>[A,,E,] (3[A,,E,][A,,E,][A,,G,] [D,F,]4 | [G,DG]>[G,DG] [G,DG]>[G,DG] [G,DG]4 | %10
 [D,D]>[D,D] [D,D]>[D,D] [D,D]4 | [A,DF]>[A,CE] (3[A,CE][A,CE][A,CE] [A,EG]4 | %12
 [D,D]>[D,D] (3[D,D][D,D][D,D] [D,D]4 | [G,DG]>[G,DG] [G,DG]>[G,DG] [G,DG]4 | %14
 [D,D]>[D,D] [D,D]>[D,D] [D,D]4 | [D,A,D]>[D,A,D] (3[D,A,D][D,G,D][D,F,] [A,,G,]4 | %16
 [A,,E,]>[A,,E,] (3[A,,E,][A,,E,][A,,G,] [D,F,]4 |] %17

